X:1
T:Park Place, 76.76 D
T:Park Place, 76.76 D
T:Anonymous, 1864
T:Public Domain Courtesy of the Cyber Hymnal™
C:Anonymous, 1864
Z:Public Domain
Z:Courtesy of the Cyber Hymnal™
%%score 1 ( 2 3 ) 4
L:1/8
Q:1/4=110
M:4/4
K:Ab
V:1 treble 
V:2 treble 
V:3 treble 
V:4 bass 
V:1
|: A2 | A2 A2 A2 A2 | A2 G4 G2 | G2 A2 A2 G2 | A6 :| A2 | A2 A2 A2 A2 | A2 A4 A2 | G2 A2 G2 A2 | %9
 G6 G2 | A2 A2 A2 A2 | A2 !fermata!d4 A2 | A3 A A2 G2 | A6 |] %14
V:2
|: [CE]2 | [Ec]2 [Ec]2 [Fd]2 [Ec]2 | [Ec]2 [DB]4 [DB]2 | [DB]2 [CA]2 [Ec]2 [DB]2 | [CA]6 :| [Ec]2 | %6
 [Fd]2 [Fd]2 [Fd]2 [Fd]2 | [Fd]2 [Ec]4 [CA]2 | [DB]2 [CA]2 [DB]2 [Ec]2 | [EB]6 E2 | %10
 [Ec]2 [Ec]2 [DB]2 [CA]2 | [DF]2 !fermata![FA]4 [DF]2 | [CE]3 [Ec] [Ec]2 [DB]2 | [CA]6 |] %14
V:3
|: x2 | x8 | x8 | x8 | x6 :| x2 | x8 | x8 | x8 | x6 E2 | x8 | x8 | x8 | x6 |] %14
V:4
|: A,2 | A,2 A,2 A,2 A,2 | E,2 E,4 E,2 | E,2 E,2 E,2 E,2 | A,,6 :| A,2 | D,2 D,2 D,2 D,2 | %7
 A,2 A,4 A,,2 | E,2 E,2 E,2 E,2 | E,6 E,2 | A,2 A,2 A,2 A,2 | D,2 !fermata!D,4 D,2 | %12
 E,3 E, E,2 E,2 | A,,6 |] %14

